X: 8436
T: Crabs In The Skillet
R: jig
M: 6/8
K: Gminor
|:G3 d2^F|G2A B2c|ded cBA|dcB AG^F|
G3 d2^F|G2A B2d|cAc f=ed|1 cAF F=EF:|2 cAF G2d||
gag gf=e|fgf f=ed|cd=e f=ed|cAF G2d|
gag gf=e|fgf f=ed|cd=e f=ed|cAF G2d|
{f}g2 {f}g2 f=e|{=e}f2 {=e}f2 =ed|cd=e f=ed|cAF GBd|
{f}g2 {f}g2 f=e|{=e}f2 {=e}f2 =ed|cd=e f=ed|cAF F=EF||
G3 A3|B3 c3|ded cBA|dcB AG^F|
G3 A3|B3 d3|cAc f=ed|cAF F=EF|
G3 A3|B3 c3|dgd f=ed|f=ed cBA|
GDG AEA|BFB d3|cA/B/c fg/a/b|c'ba g2d||

